static/img/kroki/27f3a6c1f2e155833bd027f7386478d6.svg

<?xml version="1.0" encoding="us-ascii" standalone="no"?><svg xmlns="http://www.w3.org/2000/svg" xmlns:xlink="http://www.w3.org/1999/xlink" contentStyleType="text/css" height="152px" preserveAspectRatio="none" style="width:226px;height:152px;" version="1.1" viewBox="0 0 226 152" width="226px" zoomAndPan="magnify"><defs/><g><!--class gcp_forwarding_rule--><g id="elem_gcp_forwarding_rule"><rect codeLine="22" fill="#3D176E" height="39.7891" id="gcp_forwarding_rule" rx="2.5" ry="2.5" style="stroke:#000D19;stroke-width:0.5;" width="212" x="7" y="7"/><ellipse cx="22" cy="26.8945" fill="#ADD1B2" rx="11" ry="11" style="stroke:#181818;stroke-width:1.0;"/><path d="M24.9688,32.5352 Q24.3906,32.832 23.75,32.9727 Q23.1094,33.1289 22.4063,33.1289 Q19.9063,33.1289 18.5781,31.4883 Q17.2656,29.832 17.2656,26.707 Q17.2656,23.582 18.5781,21.9258 Q19.9063,20.2695 22.4063,20.2695 Q23.1094,20.2695 23.75,20.4258 Q24.4063,20.582 24.9688,20.8789 L24.9688,23.5977 Q24.3438,23.0195 23.75,22.7539 Q23.1563,22.4727 22.5313,22.4727 Q21.1875,22.4727 20.5,23.5508 Q19.8125,24.6133 19.8125,26.707 Q19.8125,28.8008 20.5,29.8789 Q21.1875,30.9414 22.5313,30.9414 Q23.1563,30.9414 23.75,30.6758 Q24.3438,30.3945 24.9688,29.8164 L24.9688,32.5352 Z " fill="#000000"/><text fill="#D9B8FF" font-family="Helvetica" font-size="17" lengthAdjust="spacing" textLength="170" x="41" y="32.7798">gcp_forwarding_rule</text></g><!--class gcp_target_pool--><g id="elem_gcp_target_pool"><rect codeLine="24" fill="#3D176E" height="39.7891" id="gcp_target_pool" rx="2.5" ry="2.5" style="stroke:#000D19;stroke-width:0.5;" width="174" x="26" y="106.79"/><ellipse cx="41" cy="126.6845" fill="#ADD1B2" rx="11" ry="11" style="stroke:#181818;stroke-width:1.0;"/><path d="M43.9688,132.3252 Q43.3906,132.622 42.75,132.7627 Q42.1094,132.9189 41.4063,132.9189 Q38.9063,132.9189 37.5781,131.2783 Q36.2656,129.622 36.2656,126.497 Q36.2656,123.372 37.5781,121.7158 Q38.9063,120.0595 41.4063,120.0595 Q42.1094,120.0595 42.75,120.2158 Q43.4063,120.372 43.9688,120.6689 L43.9688,123.3877 Q43.3438,122.8095 42.75,122.5439 Q42.1563,122.2627 41.5313,122.2627 Q40.1875,122.2627 39.5,123.3408 Q38.8125,124.4033 38.8125,126.497 Q38.8125,128.5908 39.5,129.6689 Q40.1875,130.7314 41.5313,130.7314 Q42.1563,130.7314 42.75,130.4658 Q43.3438,130.1845 43.9688,129.6064 L43.9688,132.3252 Z " fill="#000000"/><text fill="#D9B8FF" font-family="Helvetica" font-size="17" lengthAdjust="spacing" textLength="132" x="60" y="132.5698">gcp_target_pool</text></g><!--link gcp_forwarding_rule to gcp_target_pool--><g id="link_gcp_forwarding_rule_gcp_target_pool"><path codeLine="26" d="M113,47.22 C113,62.49 113,83.92 113,100.53 " fill="none" id="gcp_forwarding_rule-to-gcp_target_pool" style="stroke:#1A83AF;stroke-width:2.0;"/><polygon fill="#1A83AF" points="113,105.41,117,96.41,113,100.41,109,96.41,113,105.41" style="stroke:#1A83AF;stroke-width:2.0;"/></g><!--SRC=[XP1DIyD048Rl_HKBEHSIYwQz2B5Gz5B4UXC9q-niiYJP3RCJGnN_kwPLMPD-NETzPkQPARH4WNN3Er5ZlKLo4rTgqm11BH8YsorjPKa4Ie6QnSDmPGrV1DPGexZ7wWrPPp0adWkTbGQT4rTUT0TPcPDjZJoCPmBZlYCqx57B2fnBc4blMqPFHYwsSwM6v71eC9DHV8CZp994-a72C9JHOeXSN7NsxZzYezzHHFxJrfPnf3bQiQVEMlQ49pawz3S_wVW8KcgJYsklzdHm8eFqhxufGDgkfnLKpb_Z60ajxnfSZgx2nLog-2ZyS0hE-i-9F6jIPQa3wXLJQYiK7vDFBsMW73bjhAtsoR6EwKiG9VDPidgTtWwRlW00]--></g></svg>

<svg xmlns="http://www.w3.org/2000/svg" width="226" height="152" preserveAspectRatio="none" style="width:226px;height:152px"><rect width="212" height="39.789" x="7" y="7" fill="#3D176E" rx="2.5" ry="2.5" style="stroke:#000d19;stroke-width:.5"/><circle cx="22" cy="26.895" r="11" fill="#ADD1B2" style="stroke:#181818;stroke-width:1"/><path d="M24.969 32.535q-.578.297-1.219.438-.64.156-1.344.156-2.5 0-3.828-1.64-1.312-1.657-1.312-4.782t1.312-4.781q1.328-1.656 3.828-1.656.703 0 1.344.156.656.156 1.219.453v2.719q-.625-.578-1.219-.844-.594-.281-1.219-.281-1.343 0-2.031 1.078-.688 1.062-.688 3.156 0 2.094.688 3.172.688 1.062 2.031 1.062.625 0 1.219-.265.594-.281 1.219-.86v2.72Z"/><text x="41" y="32.78" fill="#D9B8FF" font-family="Helvetica" font-size="17" textLength="170">gcp_forwarding_rule</text><rect width="174" height="39.789" x="26" y="106.79" fill="#3D176E" rx="2.5" ry="2.5" style="stroke:#000d19;stroke-width:.5"/><circle cx="41" cy="126.684" r="11" fill="#ADD1B2" style="stroke:#181818;stroke-width:1"/><path d="M43.969 132.325q-.578.297-1.219.438-.64.156-1.344.156-2.5 0-3.828-1.64-1.312-1.657-1.312-4.782t1.312-4.781q1.328-1.656 3.828-1.656.703 0 1.344.156.656.156 1.219.453v2.719q-.625-.579-1.219-.844-.594-.281-1.219-.281-1.343 0-2.031 1.078-.688 1.062-.688 3.156 0 2.094.688 3.172.688 1.062 2.031 1.062.625 0 1.219-.265.594-.281 1.219-.86v2.72Z"/><text x="60" y="132.57" fill="#D9B8FF" font-family="Helvetica" font-size="17" textLength="132">gcp_target_pool</text><path fill="none" d="M113 47.22v53.31" style="stroke:#1a83af;stroke-width:2"/><path fill="#1A83AF" d="m113 105.41 4-9-4 4-4-4 4 9z" style="stroke:#1a83af;stroke-width:2"/></svg>
